assets/azurelogicappscustomconnector/original.svg

<svg height="18" viewBox="0 0 18 18" width="18" xmlns="http://www.w3.org/2000/svg" xmlns:xlink="http://www.w3.org/1999/xlink"><linearGradient id="a" gradientUnits="userSpaceOnUse" x1="4.76" x2="4.76" y1="9.66" y2="17.06"><stop offset="0" stop-color="#008bf1"/><stop offset="1" stop-color="#004dae"/></linearGradient><linearGradient id="b"><stop offset="0" stop-color="#76bc2d"/><stop offset="1" stop-color="#5e9624"/></linearGradient><linearGradient id="c" gradientUnits="userSpaceOnUse" x1="4.83" x2="4.83" xlink:href="#b" y1="1.06" y2="6.38"/><linearGradient id="d" gradientUnits="userSpaceOnUse" x1="14.4" x2="14.4" xlink:href="#b" y1="10.64" y2="15.95"/><path d="m5.36 12.77v-6.39h-1.05v7.44h8.34v-1.05z" fill="#949494"/><path d="m4.38 9.82-3.16 3.18a.55.55 0 0 0 0 .77l3.16 3.13a.55.55 0 0 0 .77 0l3.16-3.16a.55.55 0 0 0 0-.77l-3.16-3.15a.55.55 0 0 0 -.77 0" fill="url(#a)"/><path d="m7.49 5.84v-4.24a.54.54 0 0 0 -.49-.54h-4.29a.54.54 0 0 0 -.54.54v4.24a.54.54 0 0 0 .54.54h4.29a.54.54 0 0 0 .49-.54" fill="url(#c)"/><path d="m11.74 11.18v4.23a.54.54 0 0 0 .54.54h4.24a.54.54 0 0 0 .54-.54v-4.23a.54.54 0 0 0 -.54-.54h-4.24a.54.54 0 0 0 -.54.54" fill="url(#d)"/></svg>

<svg xmlns="http://www.w3.org/2000/svg" id="f7bf0037-9a5e-4bb7-8b50-ac71cb035d97" width="18" height="18" viewBox="0 0 18 18"><defs><linearGradient id="acc4deac-96b1-4d46-9a2c-4b829b24be19" x1="4.76" x2="4.76" y1="9.66" y2="17.06" gradientUnits="userSpaceOnUse"><stop offset="0" stop-color="#008bf1"/><stop offset="1" stop-color="#004dae"/></linearGradient><linearGradient id="a6951013-a0d6-4369-a16b-d4a62b78c934" x1="4.83" x2="4.83" y1="1.06" y2="6.38" gradientUnits="userSpaceOnUse"><stop offset="0" stop-color="#76bc2d"/><stop offset="1" stop-color="#5e9624"/></linearGradient><linearGradient id="b9ef11bd-7128-47a8-8cf1-427a2a8cc53d" x1="14.4" x2="14.4" y1="10.64" y2="15.95" gradientUnits="userSpaceOnUse"><stop offset="0" stop-color="#76bc2d"/><stop offset="1" stop-color="#5e9624"/></linearGradient></defs><title>Icon-integration-210</title><path fill="#949494" d="M5.36 12.77V6.38H4.31v7.44h8.34v-1.05z"/><path id="bcfff480-0908-4673-8dd3-211accb6f5e9" fill="url(#acc4deac-96b1-4d46-9a2c-4b829b24be19)" d="M4.38 9.82 1.22 13a.55.55 0 0 0 0 .77l3.16 3.13a.55.55 0 0 0 .77 0l3.16-3.16a.55.55 0 0 0 0-.77L5.15 9.82a.55.55 0 0 0-.77 0"/><path id="a2e9ce98-ac6d-463e-9773-5eed323da406" fill="url(#a6951013-a0d6-4369-a16b-d4a62b78c934)" d="M7.49 5.84V1.6A.54.54 0 0 0 7 1.06H2.71a.54.54 0 0 0-.54.54v4.24a.54.54 0 0 0 .54.54H7a.54.54 0 0 0 .49-.54"/><path id="abb7af69-4e26-4379-92b2-a9feddec43db" fill="url(#b9ef11bd-7128-47a8-8cf1-427a2a8cc53d)" d="M11.74 11.18v4.23a.54.54 0 0 0 .54.54h4.24a.54.54 0 0 0 .54-.54v-4.23a.54.54 0 0 0-.54-.54h-4.24a.54.54 0 0 0-.54.54"/></svg>
